Numix-Light-GalliumOS/24/status/audio-volume-muted-panel.svg

<?xml version="1.0" encoding="UTF-8" standalone="no"?>
<svg
   xmlns:dc="http://purl.org/dc/elements/1.1/"
   xmlns:cc="http://creativecommons.org/ns#"
   xmlns:rdf="http://www.w3.org/1999/02/22-rdf-syntax-ns#"
   xmlns:svg="http://www.w3.org/2000/svg"
   xmlns="http://www.w3.org/2000/svg"
   xmlns:sodipodi="http://sodipodi.sourceforge.net/DTD/sodipodi-0.dtd"
   xmlns:inkscape="http://www.inkscape.org/namespaces/inkscape"
   width="24"
   height="24"
   viewBox="0 0 24 24"
   id="svg3239"
   version="1.1"
   inkscape:version="0.91 r"
   sodipodi:docname="xfce4-mixer-volume-muted.svg">
  <metadata
     id="metadata3304">
    <rdf:RDF>
      <cc:Work
         rdf:about="">
        <dc:format>image/svg+xml</dc:format>
        <dc:type
           rdf:resource="http://purl.org/dc/dcmitype/StillImage" />
      </cc:Work>
    </rdf:RDF>
  </metadata>
  <sodipodi:namedview
     pagecolor="#ffffff"
     bordercolor="#666666"
     borderopacity="1"
     objecttolerance="10"
     gridtolerance="10"
     guidetolerance="10"
     inkscape:pageopacity="0"
     inkscape:pageshadow="2"
     inkscape:window-width="1280"
     inkscape:window-height="998"
     id="namedview3302"
     showgrid="true"
     inkscape:zoom="27.812867"
     inkscape:cx="5.4520008"
     inkscape:cy="11.486822"
     inkscape:window-x="0"
     inkscape:window-y="0"
     inkscape:window-maximized="1"
     inkscape:current-layer="svg3239">
    <inkscape:grid
       type="xygrid"
       id="grid3371" />
  </sodipodi:namedview>
  <defs
     id="defs3241" />
  <g
     transform="translate(1,1)"
     id="g38"
     style="fill:#353535;fill-opacity:1">
    <path
       sodipodi:nodetypes="cccccccc"
       style="fill:#353535;fill-opacity:1"
       inkscape:connector-curvature="0"
       id="path40"
       d="m 8,5 -3.0026695,3 0,6 L 8,17 8,13 10,11 8,9 z" />
    <path
       sodipodi:nodetypes="ssssccs"
       style="fill:#353535;fill-opacity:1"
       inkscape:connector-curvature="0"
       id="path42"
       d="M 2,8 C 1.4769561,8 1.0008898,8.4981434 1.0008898,9 l 0,4 c 0,0.579702 0.432648,1 0.9991102,1 l 3.9964407,0 0,-6 z" />
  </g>
  <path
     style="opacity:0.4;color:#000000;fill:#353535;fill-opacity:1"
     inkscape:connector-curvature="0"
     d="M 13.492308,6.9999996 12,8.492308 15.507693,12 12,15.507692 13.492308,17 17,13.492308 20.507693,17 22,15.507692 18.492308,12 22,8.492308 20.507693,6.9999996 17,10.507691 z"
     id="path3085" />
</svg>

<svg xmlns="http://www.w3.org/2000/svg" viewBox="0 0 24 24">
 <g transform="translate(1,1)" style="fill:#353535;fill-opacity:1">
  <path d="m 8 5 -3 3 0 6 l 3 3 0 -4 2 -2 -2 -2 z"/>
  <path d="m 2 8 c -0.523 0 -0.999 0.498 -0.999 1 l 0 4 c 0 0.58 0.433 1 0.999 1 l 3.996 0 0 -6 z"/>
 </g>
 <path d="m 13.492 7 -1.492 1.492 3.508 3.508 -3.508 3.508 1.492 1.492 3.508 -3.508 3.508 3.508 1.492 -1.492 -3.508 -3.508 3.508 -3.508 -1.492 -1.492 -3.508 3.508 z" style="fill:#353535;opacity:0.4;fill-opacity:1;color:#000"/>
</svg>
